svg-color/telegram.round.svg

<?xml version="1.0" encoding="UTF-8"?>
<svg id="svg4211" width="32" height="32" version="1.1" viewBox="0 0 32 32" xmlns="http://www.w3.org/2000/svg">
 <path id="path5116" d="m16 2.5c-7.4558 0-13.5 6.0442-13.5 13.5s6.0442 13.5 13.5 13.5 13.5-6.0442 13.5-13.5-6.0442-13.5-13.5-13.5zm6.5938 8.0938c-0.40625 0.89306-5.5938 12.306-6.0938 13.406s-1.5 1-1.8633 0-1.7715-4.8652-1.7715-4.8652-3.8652-1.4082-4.8652-1.7715-1.1-1.3633 0-1.8633 12.513-5.6875 13.406-6.0938 1.5938 0.29444 1.1875 1.1875z" fill="#1e96c8" stroke-width="0" style="paint-order:markers fill stroke"/>
</svg>

<svg width="32" height="32" viewBox="0 0 32 32" xmlns="http://www.w3.org/2000/svg">
    <path d="M16 2.5C8.544 2.5 2.5 8.544 2.5 16S8.544 29.5 16 29.5 29.5 23.456 29.5 16 23.456 2.5 16 2.5zm6.594 8.094L16.5 24c-.5 1.1-1.5 1-1.863 0s-1.772-4.865-1.772-4.865L8 17.363C7 17 6.9 16 8 15.5l13.406-6.094C22.3 9 23 9.7 22.594 10.593z" fill="#1e96c8" paint-order="markers fill stroke"/>
</svg>
